X:1
T:Red River Valley
M:4/4
L:1/8
K:G
 z4 z2 DG| B2 BA G2 AG| E G- G4 DG| B2 GB d2 cB| A6 dc| B2 BA G2 AB|\
 d c- c4 E_E| D2 FG A2 BA| G6 z2|
